src/shared/media/imgs/edit.svg

<!DOCTYPE svg PUBLIC "-//W3C//DTD SVG 1.1//EN" "http://www.w3.org/Graphics/SVG/1.1/DTD/svg11.dtd">
<!-- Uploaded to: SVG Repo, www.svgrepo.com, Transformed by: SVG Repo Mixer Tools -->
<svg width="800px" height="800px" viewBox="0 0 24 24" fill="none" xmlns="http://www.w3.org/2000/svg">
<g id="SVGRepo_bgCarrier" stroke-width="0"/>
<g id="SVGRepo_tracerCarrier" stroke-linecap="round" stroke-linejoin="round"/>
<g id="SVGRepo_iconCarrier"> <path d="M21.2799 6.40005L11.7399 15.94C10.7899 16.89 7.96987 17.33 7.33987 16.7C6.70987 16.07 7.13987 13.25 8.08987 12.3L17.6399 2.75002C17.8754 2.49308 18.1605 2.28654 18.4781 2.14284C18.7956 1.99914 19.139 1.92124 19.4875 1.9139C19.8359 1.90657 20.1823 1.96991 20.5056 2.10012C20.8289 2.23033 21.1225 2.42473 21.3686 2.67153C21.6147 2.91833 21.8083 3.21243 21.9376 3.53609C22.0669 3.85976 22.1294 4.20626 22.1211 4.55471C22.1128 4.90316 22.0339 5.24635 21.8894 5.5635C21.7448 5.88065 21.5375 6.16524 21.2799 6.40005V6.40005Z" stroke="#FDB52A" stroke-width="1.5" stroke-linecap="round" stroke-linejoin="round"/> <path d="M11 4H6C4.93913 4 3.92178 4.42142 3.17163 5.17157C2.42149 5.92172 2 6.93913 2 8V18C2 19.0609 2.42149 20.0783 3.17163 20.8284C3.92178 21.5786 4.93913 22 6 22H17C19.21 22 20 20.2 20 18V13" stroke="#FDB52A" stroke-width="1.5" stroke-linecap="round" stroke-linejoin="round"/> </g>
</svg>

<svg xmlns="http://www.w3.org/2000/svg" width="800" height="800" viewBox="0 0 24 24" fill="none" stroke="#fdb52a" stroke-width="1.5" stroke-linejoin="round" xmlns:v="https://vecta.io/nano"><path d="M21.28 6.4l-9.54 9.54c-.95.95-3.77 1.39-4.4.76s-.2-3.45.75-4.4l9.55-9.55a2.58 2.58 0 0 1 1.848-.836 2.58 2.58 0 0 1 1.881.758 2.58 2.58 0 0 1 .752 1.883A2.58 2.58 0 0 1 21.28 6.4h0z"/><path d="M11 4H6a4 4 0 0 0-4 4v10a4 4 0 0 0 4 4h11c2.21 0 3-1.8 3-4v-5" stroke-linecap="round"/></svg>
